X: 84
T: Trippe-Vals
B:[[Notböcker/Melodier til gamle danske Almuedanse for Violin solo]]
O:Danmark
Z:Søren Bak Vestergaard
M: 3/8
L: 1/16
K: Bb
!downbow!fe|dfbabg|gfdFdF|fecFcF|\
gfdFdF|dfbabg|gfdFdF|fecFcF|[BD]4:|\
|:(3(BAB)|ceFcec|BdFBdB|AcFAcA|\
BdFBdB|ceFcec|BdFBdB|AcFAcA|[BD]4:|

